icons/astroid.svg

<svg width="24" height="24" viewBox="0 0 24 24" fill="none" xmlns="http://www.w3.org/2000/svg">
<path d="M2.37683 12.4827C6.8775 13.6084 10.3916 17.1225 11.5173 21.6232C11.643 22.1256 12.357 22.1256 12.4827 21.6232C13.6084 17.1225 17.1225 13.6084 21.6232 12.4827C22.1256 12.357 22.1256 11.643 21.6232 11.5173C17.1225 10.3916 13.6084 6.8775 12.4827 2.37683C12.357 1.87439 11.643 1.87439 11.5173 2.37683C10.3916 6.8775 6.8775 10.3916 2.37683 11.5173C1.87439 11.643 1.87439 12.357 2.37683 12.4827Z" stroke="black" stroke-width="2" stroke-linecap="round" stroke-linejoin="round"/>
</svg>

<svg xmlns="http://www.w3.org/2000/svg" width="24" height="24" viewBox="0 0 24 24" fill="none" stroke="currentColor" stroke-width="2" stroke-linecap="round" stroke-linejoin="round">
<path d="M2.377 12.483a12.57 12.57 0 0 1 9.14 9.14c.126.503.84.503.966 0a12.57 12.57 0 0 1 9.14-9.14c.503-.126.503-.84 0-.966a12.57 12.57 0 0 1-9.14-9.14c-.126-.503-.84-.503-.966 0a12.57 12.57 0 0 1-9.14 9.14c-.503.126-.503.84 0 .966"/>
</svg>
